X:1
T: Burghee's Hole
N:
C:aka "The Beadle of Grubb Street"
S:Play 3 times
A:
O:
R:
M:4/4
K:G
I:speed 200
%W: A1
% voice 1 (1 lines, 36 notes)
K:G
M:4/4
L:1/16
B2 c2 |d4 B4 G4 E4 |c4 A4 F4 D4 |G4 D4 A4 D4 |G2 A2 B4 A4 D4 |d4 B4 G4 E4 |c4 A4 F4 D4 |d4 B4 G4 e4 |A4 ^c4 d4 B2 c2 |
%W: A2
% voice 1 (1 lines, 34 notes)
d4 B4 G4 E4 |c4 A4 F4 D4 |G4 D4 A4 D4 |G2 A2 B4 A4 D4 |d4 B4 G4 E4 |c4 A4 F4 D4 |d4 B4 G4 e4 |A4 ^c4 d4 g2 a2 |
%W: B1
% voice 1 (1 lines, 29 notes)
b4 G4 G4 F4 |a4 F4 F4 E4 |g4 E4 E4 D4 |f4 D4 D4 C4 |d4 d4 d4 d4 |d12 c4 |B4 G4 A4 F4 |G12 g2 a2 |
%W: B2
% voice 1 (1 lines, 27 notes)
b4 G4 G4 F4 |a4 F4 F4 E4 |g4 E4 E4 D4 |f4 D4 D4 C4 |d4 d4 d4 d4 |d12 c4 |B4 G4 A4 F4 |G12 ||

